assets/icons/soundcloud.svg

<svg xml:space="preserve" fill="#ebebeb" style="fill-rule:evenodd;clip-rule:evenodd;stroke-linejoin:round;stroke-miterlimit:2" viewBox="0 0 39 23" xmlns="http://www.w3.org/2000/svg"><path d="M-3.163-3.701h38.512v22.656H-3.163z" style="fill:none" transform="translate(3.163 3.701)"/><g transform="translate(4 4)"><clipPath id="a"><path d="M.2 8.5 0 10.3l.2 1.8c0 .1.1.1.1.1.1 0 .1-.1.1-.1l.3-1.8-.3-1.8c0-.1-.1-.1-.1-.1s-.1 0-.1.1m1.2-1.1-.3 2.9.3 2.9c0 .1.1.1.1.1.1 0 .1-.1.1-.1l.4-2.9-.4-2.9c0-.1-.1-.1-.1-.1zM5.2 7 5 10.3l.2 3.5c0 .1.1.2.2.2s.2-.1.2-.2l.4-3.5L5.7 7c0-.1-.1-.2-.2-.2-.2 0-.3.1-.3.2m-2.5-.2-.3 3.5.3 3.3c0 .1.1.2.2.2 0 0 .1-.1.1-.2l.3-3.3L3 6.8c0-.1-.1-.2-.2-.2 0 .1-.1.1-.1.2m1.2-.1-.3 3.6.3 3.4c0 .1.1.2.2.2s.2-.1.2-.2l.3-3.4-.3-3.6c0-.1-.1-.2-.2-.2s-.1.1-.2.2m2.6-1.8-.3 5.4.3 3.5c0 .1.1.2.2.2.2 0 .3-.1.3-.2l.3-3.5L7 4.9c0-.1-.1-.2-.2-.2-.2 0-.3.1-.3.2m1.3-1.2-.2 6.6.2 3.5q0 .3.3.3c.1 0 .3-.1.3-.3l.3-3.5-.3-6.6q0-.3-.3-.3t-.3.3m5.3-.3-.2 6.9.2 3.3c0 .2.2.4.4.4s.4-.2.4-.4l.2-3.3-.2-7c0-.2-.2-.4-.4-.4-.3.1-.4.2-.4.5m-4-.3-.2 7.2.2 3.4q0 .3.3.3t.3-.3l.2-3.4-.2-7.2q0-.3-.3-.3c-.2 0-.3.2-.3.3m2.6 0-.2 7.2.2 3.4c0 .2.2.4.4.4s.4-.2.4-.4l.2-3.4-.2-7.2c0-.2-.2-.4-.4-.4s-.4.2-.4.4m-1.3-.2-.2 7.4.2 3.4q0 .3.3.3t.3-.3l.2-3.4-.2-7.4c0-.2-.2-.3-.3-.3s-.3.1-.3.3m4-.9-.2 8.3.2 3.3c0 .2.2.4.4.4s.4-.2.4-.4l.2-3.3-.2-8.3c0-.2-.2-.4-.4-.4s-.4.2-.4.4m1.4-.7-.2 9 .2 3.3c0 .2.2.4.4.4s.4-.2.4-.4l.2-3.3-.2-9c0-.2-.2-.4-.4-.4h-.1c-.2 0-.3.2-.3.4m1.6-.9c-.3.1-.4.2-.4.5v12.7c0 .2.2.4.4.5h11.1c2.2 0 4-1.8 4-4s-1.8-4-4-4c-.5 0-1.1.1-1.5.3-.3-3.6-3.3-6.4-7-6.4h-.5c-.7 0-1.4.2-2.1.4"/></clipPath><g clip-path="url(#a)"><path d="M0 0h124.5v14.1H0z" style="fill:#fff"/></g></g></svg>

<?xml version="1.0" encoding="UTF-8" standalone="no"?>
<!DOCTYPE svg PUBLIC "-//W3C//DTD SVG 1.1//EN" "http://www.w3.org/Graphics/SVG/1.1/DTD/svg11.dtd">
<svg width="100%" height="100%" viewBox="0 0 39 23" version="1.1" xmlns="http://www.w3.org/2000/svg" xmlns:xlink="http://www.w3.org/1999/xlink" xml:space="preserve" xmlns:serif="http://www.serif.com/" style="fill-rule:evenodd;clip-rule:evenodd;stroke-linejoin:round;stroke-miterlimit:2;">
    <g id="Artboard1" transform="matrix(1,0,0,1,3.16256,3.70115)">
        <rect x="-3.163" y="-3.701" width="38.512" height="22.656" style="fill:none;"/>
        <g transform="matrix(1,0,0,1,0.837438,0.298849)">
            <clipPath id="_clip1">
                <path d="M0.2,8.5L0,10.3L0.2,12.1C0.2,12.2 0.3,12.2 0.3,12.2C0.4,12.2 0.4,12.1 0.4,12.1L0.7,10.3L0.4,8.5C0.4,8.4 0.3,8.4 0.3,8.4C0.3,8.4 0.2,8.4 0.2,8.5M1.4,7.4L1.1,10.3L1.4,13.2C1.4,13.3 1.5,13.3 1.5,13.3C1.6,13.3 1.6,13.2 1.6,13.2L2,10.3L1.6,7.4C1.6,7.3 1.5,7.3 1.5,7.3L1.4,7.4M5.2,7L5,10.3L5.2,13.8C5.2,13.9 5.3,14 5.4,14C5.5,14 5.6,13.9 5.6,13.8L6,10.3L5.7,7C5.7,6.9 5.6,6.8 5.5,6.8C5.3,6.8 5.2,6.9 5.2,7M2.7,6.8L2.4,10.3L2.7,13.6C2.7,13.7 2.8,13.8 2.9,13.8C2.9,13.8 3,13.7 3,13.6L3.3,10.3L3,6.8C3,6.7 2.9,6.6 2.8,6.6C2.8,6.7 2.7,6.7 2.7,6.8M3.9,6.7L3.6,10.3L3.9,13.7C3.9,13.8 4,13.9 4.1,13.9C4.2,13.9 4.3,13.8 4.3,13.7L4.6,10.3L4.3,6.7C4.3,6.6 4.2,6.5 4.1,6.5C4,6.5 4,6.6 3.9,6.7M6.5,4.9L6.2,10.3L6.5,13.8C6.5,13.9 6.6,14 6.7,14C6.9,14 7,13.9 7,13.8L7.3,10.3L7,4.9C7,4.8 6.9,4.7 6.8,4.7C6.6,4.7 6.5,4.8 6.5,4.9M7.8,3.7L7.6,10.3L7.8,13.8C7.8,14 7.9,14.1 8.1,14.1C8.2,14.1 8.4,14 8.4,13.8L8.7,10.3L8.4,3.7C8.4,3.5 8.3,3.4 8.1,3.4C7.9,3.4 7.8,3.5 7.8,3.7M13.1,3.4L12.9,10.3L13.1,13.6C13.1,13.8 13.3,14 13.5,14C13.7,14 13.9,13.8 13.9,13.6L14.1,10.3L13.9,3.3C13.9,3.1 13.7,2.9 13.5,2.9C13.2,3 13.1,3.1 13.1,3.4M9.1,3.1L8.9,10.3L9.1,13.7C9.1,13.9 9.2,14 9.4,14C9.6,14 9.7,13.9 9.7,13.7L9.9,10.3L9.7,3.1C9.7,2.9 9.6,2.8 9.4,2.8C9.2,2.8 9.1,3 9.1,3.1M11.7,3.1L11.5,10.3L11.7,13.7C11.7,13.9 11.9,14.1 12.1,14.1C12.3,14.1 12.5,13.9 12.5,13.7L12.7,10.3L12.5,3.1C12.5,2.9 12.3,2.7 12.1,2.7C11.9,2.7 11.7,2.9 11.7,3.1M10.4,2.9L10.2,10.3L10.4,13.7C10.4,13.9 10.5,14 10.7,14C10.9,14 11,13.9 11,13.7L11.2,10.3L11,2.9C11,2.7 10.8,2.6 10.7,2.6C10.6,2.6 10.4,2.7 10.4,2.9M14.4,2L14.2,10.3L14.4,13.6C14.4,13.8 14.6,14 14.8,14C15,14 15.2,13.8 15.2,13.6L15.4,10.3L15.2,2C15.2,1.8 15,1.6 14.8,1.6C14.6,1.6 14.4,1.8 14.4,2M15.8,1.3L15.6,10.3L15.8,13.6C15.8,13.8 16,14 16.2,14C16.4,14 16.6,13.8 16.6,13.6L16.8,10.3L16.6,1.3C16.6,1.1 16.4,0.9 16.2,0.9L16.1,0.9C15.9,0.9 15.8,1.1 15.8,1.3M17.4,0.4C17.1,0.5 17,0.6 17,0.9L17,13.6C17,13.8 17.2,14 17.4,14.1L28.5,14.1C30.7,14.1 32.5,12.3 32.5,10.1C32.5,7.9 30.7,6.1 28.5,6.1C28,6.1 27.4,6.2 27,6.4C26.7,2.8 23.7,0 20,0L19.5,0C18.8,0 18.1,0.2 17.4,0.4"/>
            </clipPath>
            <g clip-path="url(#_clip1)">
                <rect x="0" y="0" width="124.5" height="14.1" style="fill:white;"/>
            </g>
        </g>
    </g>
</svg>
